X: 4165
T: MOLLY'S NIGHT CAP
%R: reel
B: James Kerr "Merry Melodies" v.4 p.19 #165
Z: 2016 John Chambers <jc:trillian.mit.edu>
M: C|
L: 1/8
K: Amix
(gf) |:\
e2cA e2cA | (3(Bcd) ef g2ge |\
[1 d2BG (dG)BG | (3(Bcd) ef g2gf :|\
[2 afge dfec | A2A2A2 |]
|: (fg) |\
a2(ab) aged | (3(Bcd) ef g2ge |\
[1 d2BG (dG)BG | (3(Bcd) (ef)g2 :|\
[2 afge dfec | A2A2A2 |]

%%sep 1 1 500
%%sep 1 1 500

